X:1
T:Crudel lascia
T:Crudel lascia
T:Theodorico Sistino
T:Source : Cantiones trium vocum---Hamburgi---P.ab Ohr---1608. Editor : André Vierendeels (27/02/14).
T:Notes : Original clefs : C1, C1, F4 Editorial accidentals above the staff Square bracket indicates ligature
T:-natural
C:Theodorico Sistino
%%score [ 1 2 3 ]
L:1/8
Q:1/4=70
M:4/4
K:F
V:1 treble nm="Soprano 1" snm="S 1"
V:2 treble nm="Soprano 2" snm="S 2"
V:3 bass nm="Bass" snm="B"
V:1
 A8 | B8 | A8 | G8- | G4 c4- | c2 B2 A2 G2 | ^F4 G4 | A8 | G2 B2 A2 d2 | B2 G2 c4 | =B2 d2 _e2 d2 | %11
w: Cru-|del|las-|cia|_ _||* sto|co-|re che tien' a|tut- tel' ho-|re, che tien' a|
 c2 B2 A4 | Adcc BB A2 |[M:2/4] G4 ::[M:4/4] z2 B2 d3 c | B2 A2 G3 A | B2 A2 d2 A2- | A2 A2 A2 A2 | %18
w: tut- tel' ho-|re, che- tien a tut- tel' ho-|re,|ac- ces- s'in-|fiam- * * m'e|fo- co, ac- ces-|* s'in fiam m'e|
 D3 E F2 E2 | ^F4 A2 d2- | d2 d4 B2 | A2 d2 d2 A2 | G4 A2 d2 | d3 c BA GF | E2 ^F2 G4 | %25
w: fo- * * co,|e con- su-|* man- do|voi a po- co'a|po- co, a|po- * * * * *|* co'a po-|
 G2 c2 B2 A2 | z2 A2 B2 B2 | A4 G4- | G4 z2 A2 | B2 B2 c4 | d2 d2 d4 | B4 A4- |1 A4 G4 :|2 %33
w: co, a po- co,|a po- co'a|po- co,|_ e|con- su- man-|do a po-|co'a po-|* co|
 A4 G4- || G8 |] %35
w: (po)- co.|_|
V:2
 z4 A4- | A4 G4- | G4 ^F4 | G4 D4 | E8 | E8 | z2 A2 G4- | G2 FE ^F4 | G2 G2 A2 A2 | G2 G4 ^F2 | %10
w: Cru|_ del|_ las-|cia sto|co-|re,|sto co-||re, che tien a|tut- tel' ho-|
 G2 =B2 c2 GF |"^-natural" _E2 DE ^F4 |"^#" FBGA FG ^F2 |[M:2/4] G4 ::[M:4/4] z2 G2 B2 A2 | %15
w: re, che tien' a _|tut- tel' _ ho|re, che- tien a tut- tel' ho-|re,|ac- ces- s'in-|
 G2 ^F2 z2 G2- | G2 ^F2 D2 =F2- | F2 E2 D2 C2 | z2 D4 ^C2 | D4 F2 B2- | B2 B4 G2 | ^F4 F4 | E4 D4 | %23
w: fiam- ma, e|_ fo- co'ac- ces'|_ s'in- fiam- m'e|fo- co,|e con- su-|* man- do|voi a|po- co|
 z2 G2 GF ED | C4 D2 D2 | E2 G2 G2 F2 | F4 FD G2- | G2 ^F2 G2 B2 | B2 c2 c4 | d4 z2 A2 | B8 | %31
w: a po- * * *|* co, e|con- su- man- do|voi po- co'a po-|* * co, a-|po- co'a po-|co, a|po-|
 G6 FE |1 ^F4 G4 :|2 ^F4 G4- || G8 |] %35
w: co'a _ _|po- co,|po- co.|_|
V:3
 D,8 | D,8- | D,8 | =B,,8 | C,8 | A,,8 | D,8- | D,8 | G,,2 G,2 ^F,3 F, | G,2 G,2 A,4 | %10
w: Cru-|del|_|las-|cia|sto|co-||re, che tien a|tut- tel' ho-|
 G,2 G,2 C,2 =B,,2 | C,2 G,,2 D,4 | D,B,,C,A,, B,,G,, D,2 |[M:2/4] G,,4 ::[M:4/4] z2 G,2 G,2 ^F,2 | %15
w: re, che tien a|tut- tel' ho-|re, che tien a tut- tel' ho-|re,|ac- ces- s'in-|
 G,2 D,2 _E,4 | D,4 z2 D,2 | D,2 ^C,2 D,2 A,,2 | B,,4 A,,4 | z2 D,2 D,2 B,,2- | B,,2 G,,4 G,,2 | %21
w: fiam- m'e fo-|co, ac-|ces- s'in fiam- m'e|fo- co,|e con- su-|* man- do|
 D,4 z2 D,2 | E,2 E,2 ^F,4 | G,4 z2 G,,2 | A,,2 A,,2 =B,,4 | C,4 z2 D,2 | D,3 D, B,,2 G,,2 | %27
w: voi a|po- co'a po-|co, a|po- co'a po-|co, e|con- su- man- do|
 D,4 z2 G,2 | _E,2 C,2 F,4 | B,,4 z4 | G,,4 B,,4- | B,,2 C,2 D,4- |1 D,4 G,,4 :|2 D,4 G,,4- || %34
w: voi a|po- co'a po-|co,|a po-|* co'a po-|* co,|(po)- co.|
 G,,8 |] %35
w: _|

